X: 1100
T: The Dairy Maid
R:double jig
N:"" "1st Setting" "collected by J.O'Neill"
B:O'Neill's 1100
Z:Transcribed by henrik.norbeck@mailbox.swipnet.se
M:6/8
L:1/8
K:F
(F/G/)|c2d c2A|GFF F2A|c2f dcA|BGG G2(A/B/)|
c2A GFG|AGA f2e|d2c fcA|GFF F2:|
c|f2d dcf|c2A AGA|cfe dcf|AGF G2(A/B/)|
c2A GFG|AGA f2e|d2c fcA|GFF F2:|


